modules/feathericon/icons/file-powerpoint.svg

<?xml version="1.0" encoding="UTF-8"?>
<svg width="10px" height="14px" viewBox="0 0 10 14" version="1.1" xmlns="http://www.w3.org/2000/svg" xmlns:xlink="http://www.w3.org/1999/xlink">
    <!-- Generator: sketchtool 48.1 (47250) - http://www.bohemiancoding.com/sketch -->
    <title>file-powerpoint</title>
    <desc>Created with sketchtool.</desc>
    <defs></defs>
    <g id="file-types" stroke="none" stroke-width="1" fill="none" fill-rule="evenodd">
        <g id="file-powerpoint" fill="#000000">
            <path d="M1,12.9931545 C1,12.9998968 9.00460243,13 9.00460243,13 C8.9970214,13 9,4 9,4 L6,4 L6,1 L0.995397568,1 C1.00550487,1 1,12.9931545 1,12.9931545 Z M0,1.00684547 C0,0.450780073 0.455664396,0 0.995397568,0 L7.5,0 L10,2.5 L10,12.9931545 C10,13.5492199 9.5443356,14 9.00460243,14 L0.995397568,14 C0.445654671,14 0,13.5500512 0,12.9931545 L0,1.00684547 Z M7,1 L9,3 L7,3 L7,1 Z M4,8 L5.5,8 C5.5,8 6,8 6,8.5 C6,9 5.5,9 5.5,9 L4,9 L4,8 Z M5.66666667,7 L3,7 L3,11 L4,11 L4,10 L5.66666667,10 C5.66666667,10 7,10 7,8.5 C7,7 5.66666667,7 5.66666667,7 Z" id="Shape"></path>
        </g>
    </g>
</svg>

<svg width="10" height="14" xmlns="http://www.w3.org/2000/svg"><path d="M1 12.993C1 13 9.005 13 9.005 13 8.997 13 9 4 9 4H6V1H.995C1.005 1 1 12.993 1 12.993zM0 1.007C0 .45.456 0 .995 0H7.5L10 2.5v10.493C10 13.55 9.544 14 9.005 14H.995A1 1 0 0 1 0 12.993V1.007zM7 1l2 2H7V1zM4 8h1.5s.5 0 .5.5-.5.5-.5.5H4V8zm1.667-1H3v4h1v-1h1.667S7 10 7 8.5 5.667 7 5.667 7z" fill="#000" fill-rule="evenodd"/></svg>
